X:1
T: The Belfast Lasses
C:
R:Reel
Q:232
K:G
M:4/4
L:1/8
|:G2BG dG BG|EA AG FA FD|G2BG dG BG|Ec AF G2G2|
G2BG dG BG|EA AG FA FD|G2BG dG BG|eg fa g2g2|
gd dc Bd BG|FA AG FA FD|gD DC B,D B,G,|E,F, A,F, G,2G,2|
gd dc Bd BG|EA AG FA FD|gd ec Bd BG|eg fa g2g2:|
